X: 2324
M: C
L: 1/8
K: D
uD2 |\
vF>vGuA>uA B2A2 | B>cd>B A3uG |\
|: (D>E) |\
=F2(E>F) D2(F>G) | A>A_B>G A3uE |\
=F>EF>^F G>FG>^G | A>Ad>^G A3=G |\


